X:10
T:Gloire  toi
M:none
L:1/4
K:A
%%freegchord 1
"Clbrant"F8E||"Unisson"E2E|F3FED|E3E2E|F3FEF|A3AAA|F3FBA|B3A3|FEDE3||
